app/assets/icons/polaris/ImportStoreMajor.svg

<svg viewBox="0 0 20 20" xmlns="http://www.w3.org/2000/svg"><path fill-rule="evenodd" d="m1.014 5.836.61-3.583a1.522 1.522 0 0 1 1.51-1.253h13.733c.748 0 1.387.53 1.51 1.253l.609 3.583c.104.61-.376 1.164-1.007 1.164h-.91c-.58 0-1.11-.321-1.37-.83l-.597-1.17-.597 1.17c-.26.509-.79.83-1.37.83h-1.169c-.58 0-1.11-.321-1.369-.83l-.597-1.17-.597 1.17c-.26.509-.79.83-1.37.83h-1.169c-.58 0-1.11-.321-1.369-.83l-.597-1.17-.598 1.17c-.259.509-.789.83-1.369.83h-.91c-.63 0-1.11-.555-1.007-1.164Zm6.779 2.957a1 1 0 0 0 0 1.414l.793.793h-6.586a1 1 0 1 0 0 2h6.586l-.793.793a1 1 0 0 0 1.414 1.414l2.5-2.5a.998.998 0 0 0 .293-.704v-.006a.997.997 0 0 0-.284-.695l-.01-.01-2.499-2.5a1 1 0 0 0-1.414 0Zm10.207.207h-2v8h-12v-2h-2v2.5a1.5 1.5 0 0 0 1.5 1.5h13a1.5 1.5 0 0 0 1.5-1.5v-8.5Z"/></svg>

<svg viewBox="0 0 20 20" xmlns="http://www.w3.org/2000/svg"><path fill-rule="evenodd" d="m1.014 5.836.61-3.583A1.522 1.522 0 0 1 3.133 1h13.733c.748 0 1.387.53 1.51 1.253l.609 3.583C19.09 6.446 18.61 7 17.979 7h-.91c-.58 0-1.11-.321-1.37-.83L15.103 5l-.597 1.17c-.26.509-.79.83-1.37.83h-1.169c-.58 0-1.11-.321-1.369-.83L10 5l-.597 1.17c-.26.509-.79.83-1.37.83H6.865c-.58 0-1.11-.321-1.369-.83L4.898 5 4.3 6.17c-.259.509-.789.83-1.369.83h-.91c-.63 0-1.11-.555-1.007-1.164zm6.779 2.957a1 1 0 0 0 0 1.414l.793.793H2a1 1 0 1 0 0 2h6.586l-.793.793a1 1 0 0 0 1.414 1.414l2.5-2.5a.998.998 0 0 0 .293-.704v-.006a.997.997 0 0 0-.284-.695l-.01-.01-2.499-2.5a1 1 0 0 0-1.414 0zM18 9h-2v8H4v-2H2v2.5A1.5 1.5 0 0 0 3.5 19h13a1.5 1.5 0 0 0 1.5-1.5V9z"/></svg>
